resources/svg/donut-chart-line.svg

<svg fill="currentColor" viewBox="0 0 24 24" xmlns="http://www.w3.org/2000/svg"><path d="M10.9999 2.04932L11 4.06182C7.05371 4.5539 4 7.9203 4 11.9999C4 16.4182 7.58172 19.9999 12 19.9999C13.8487 19.9999 15.5509 19.3729 16.9055 18.3199L18.3289 19.7427C16.605 21.1535 14.4014 21.9999 12 21.9999C6.47715 21.9999 2 17.5228 2 11.9999C2 6.81462 5.94662 2.55109 10.9999 2.04932ZM21.9506 13C21.7509 15.011 20.9555 16.8467 19.7433 18.3282L18.3199 16.9055C19.1801 15.7989 19.756 14.4606 19.9381 12.9999L21.9506 13ZM13.0011 2.04942C17.725 2.51895 21.4815 6.27583 21.9506 10.9998L19.9381 11C19.4869 7.38156 16.6192 4.51358 13.001 4.06194L13.0011 2.04942Z"/></svg>

<svg xmlns="http://www.w3.org/2000/svg" viewBox="0 0 24 24" fill="currentColor">
    <g>
        <path fill="none" d="M0 0H24V24H0z"/>
        <path d="M11 2.05v2.012C7.054 4.554 4 7.92 4 12c0 4.418 3.582 8 8 8 1.849 0 3.55-.627 4.906-1.68l1.423 1.423C16.605 21.153 14.4 22 12 22 6.477 22 2 17.523 2 12c0-5.185 3.947-9.449 9-9.95zM21.95 13c-.2 2.011-.994 3.847-2.207 5.328l-1.423-1.422c.86-1.107 1.436-2.445 1.618-3.906h2.013zM13.002 2.05c4.724.469 8.48 4.226 8.95 8.95h-2.013c-.451-3.618-3.319-6.486-6.937-6.938V2.049z"/>
    </g>
</svg>
